X: 17235
T: Her Mantle So Green
R: waltz
M: 3/4
K: Bminor
dc|B4cB|A2 F3d|e3 f/e/ de|f4 fa|
b2 a3b|fg/f/ e2 fe|d2 B2 AF|A4 dc|
B4 cB|A2 F3d|e3f/e/ de|f4 fa|
b2 a3b|fg/f/ e2 fe|d2 B2 A2|B4 fa|
b4 c'b|a2 f2 fa|b4 af|a4 fa|
b2 a3b|fg/f/ e2 fe|d2 B2 AF|A4 dc|
B4 cB|A2 F3d|e3f/e/ de|f4 fa|
b2 a3b|fg/f/ e2 fe|d2 B2 A2|B4||

